!!!OTL:
!!!ONR: No. 18
!! From Madeleine Beland,
!! "Chansons de Voyageurs, Coureurs de Bois et Forestiers"
!! Quebec: Les Presses de l'universite/ Laval, 1982
!! ISBN 2-7637-6942-X
**kern
*clefG2
*k[]
*M9/8
8b
16b
8.dd
8dd
*M6/8
=
16b
16a
8g
8g
8cc
8a
8g
*M9/8
=
8f
8r
8g
4a
16b
16g
4g
8f#
=
4.g
4r
8d
4g
8b
*M6/8
=
4dd
8dd
qdd
8gg
8ee
8dd
*M9/8
8cc
8r
8cc
4ee
8ee
16f
8.ee
16ee
16dd
=
4.dd
4r
qb
8dd
4dd
8dd
*M6/8
24b
24a
24g
8r
8cc
8a
8g
*M9/8
=
8f
8r
8g
4a
24a
24b
24g
4g
8f#
=
4.g;
4r
==
*-
